sequoia/src/components/Popups/PopupConnect/assets/math.svg

<svg width="101" height="100" viewBox="0 0 101 100" fill="none" xmlns="http://www.w3.org/2000/svg">
<path d="M65.7495 47.2725C64.4284 45.9514 64.4284 43.8559 65.7495 42.5349C67.0705 41.2138 69.166 41.2138 70.4871 42.5349C71.8081 43.8559 71.8081 45.9514 70.4871 47.2725C69.166 48.5935 67.0705 48.5935 65.7495 47.2725ZM54.5432 58.5243C53.5866 57.5677 53.5866 55.9733 54.5432 54.9711C55.4998 54.0144 57.0942 54.0144 58.0964 54.9711C59.053 55.9277 59.053 57.5221 58.0964 58.5243C57.0942 59.4809 55.4998 59.4809 54.5432 58.5243ZM72.2637 52.6023C71.307 51.6457 71.307 50.0513 72.2637 49.0491C73.2203 48.0924 74.8147 48.0924 75.8169 49.0491C76.7735 50.0057 76.7735 51.6001 75.8169 52.6023C74.8147 53.6045 73.2203 53.6045 72.2637 52.6023ZM66.3417 58.5243C65.385 57.5677 65.385 55.9733 66.3417 54.9711C67.2983 54.0144 68.8927 54.0144 69.8949 54.9711C70.8515 55.9277 70.8515 57.5221 69.8949 58.5243C68.8927 59.4809 67.3438 59.4809 66.3417 58.5243ZM78.7779 57.9321C78.1401 57.2943 78.1401 56.201 78.7779 55.5633C79.4156 54.9255 80.5089 54.9255 81.1467 55.5633C81.7844 56.201 81.7844 57.2943 81.1467 57.9321C80.4634 58.5698 79.4156 58.5698 78.7779 57.9321ZM72.8559 63.8541C72.2181 63.2163 72.2181 62.1231 72.8559 61.4853C73.4936 60.8475 74.5869 60.8475 75.2247 61.4853C75.8624 62.1231 75.8624 63.2163 75.2247 63.8541C74.5414 64.4919 73.4936 64.4919 72.8559 63.8541ZM59.8274 53.1945C58.5064 51.8734 58.5064 49.7779 59.8274 48.4569C61.1485 47.1358 63.244 47.1358 64.5651 48.4569C65.8861 49.7779 65.8861 51.8734 64.5651 53.1945C63.2895 54.5155 61.1485 54.5155 59.8274 53.1945ZM59.8274 41.396C58.5064 40.0749 58.5064 37.9795 59.8274 36.6584C61.1485 35.3373 63.244 35.3373 64.5651 36.6584C65.8861 37.9795 65.8861 40.0749 64.5651 41.396C63.2895 42.6715 61.1485 42.6715 59.8274 41.396ZM53.951 47.2725C52.6299 45.9514 52.6299 43.8559 53.951 42.5349C55.2721 41.2138 57.3675 41.2138 58.6886 42.5349C60.0097 43.8559 60.0097 45.9514 58.6886 47.2725C57.3675 48.5935 55.2265 48.5935 53.951 47.2725ZM42.0614 47.2725C40.7403 45.9514 40.7403 43.8559 42.0614 42.5349C43.3825 41.2138 45.478 41.2138 46.799 42.5349C48.1201 43.8559 48.1201 45.9514 46.799 47.2725C45.478 48.5935 43.3825 48.5935 42.0614 47.2725ZM30.8096 58.5243C29.853 57.5677 29.853 55.9733 30.8096 54.9711C31.7662 54.0144 33.3606 54.0144 34.3628 54.9711C35.3194 55.9277 35.3194 57.5221 34.3628 58.5243C33.4062 59.4809 31.8118 59.4809 30.8096 58.5243ZM48.5756 52.6023C47.619 51.6457 47.619 50.0513 48.5756 49.0491C49.5323 48.0924 51.1266 48.0924 52.1288 49.0491C53.0855 50.0057 53.0855 51.6001 52.1288 52.6023C51.1266 53.6045 49.5323 53.6045 48.5756 52.6023ZM42.6536 58.5243C41.697 57.5677 41.697 55.9733 42.6536 54.9711C43.6102 54.0144 45.2046 54.0144 46.2068 54.9711C47.1635 55.9277 47.1635 57.5221 46.2068 58.5243C45.2046 59.4809 43.6102 59.4809 42.6536 58.5243ZM19.6033 57.9321C18.9656 57.2943 18.9656 56.201 19.6033 55.5633C20.2411 54.9255 21.3344 54.9255 21.9721 55.5633C22.6099 56.201 22.6099 57.2943 21.9721 57.9321C21.2888 58.5698 20.2411 58.5698 19.6033 57.9321ZM25.5253 63.8541C24.8876 63.2163 24.8876 62.1231 25.5253 61.4853C26.1631 60.8475 27.2564 60.8475 27.8941 61.4853C28.5319 62.1231 28.5319 63.2163 27.8941 63.8541C27.2108 64.4919 26.1631 64.4919 25.5253 63.8541ZM49.1678 63.8541C48.5301 63.2163 48.5301 62.1231 49.1678 61.4853C49.8056 60.8475 50.8989 60.8475 51.5366 61.4853C52.1744 62.1231 52.1744 63.2163 51.5366 63.8541C50.8533 64.4919 49.8056 64.4919 49.1678 63.8541ZM24.9331 52.6023C23.9765 51.6457 23.9765 50.0513 24.9331 49.0491C25.8898 48.0924 27.4841 48.0924 28.4863 49.0491C29.443 50.0057 29.443 51.6001 28.4863 52.6023C27.4841 53.6045 25.8898 53.6045 24.9331 52.6023ZM36.1394 53.1945C34.8183 51.8734 34.8183 49.7779 36.1394 48.4569C37.4605 47.1358 39.5559 47.1358 40.877 48.4569C42.1981 49.7779 42.1981 51.8734 40.877 53.1945C39.5559 54.5155 37.4605 54.5155 36.1394 53.1945ZM36.1394 41.396C34.8183 40.0749 34.8183 37.9795 36.1394 36.6584C37.4605 35.3373 39.5559 35.3373 40.877 36.6584C42.1981 37.9795 42.1981 40.0749 40.877 41.396C39.5559 42.6715 37.4605 42.6715 36.1394 41.396ZM30.2174 47.2725C28.8963 45.9514 28.8963 43.8559 30.2174 42.5349C31.5384 41.2138 33.6339 41.2138 34.955 42.5349C36.2761 43.8559 36.2761 45.9514 34.955 47.2725C33.6795 48.5935 31.5384 48.5935 30.2174 47.2725Z" fill="white"/>
</svg>

<svg width="101" height="100" fill="none" xmlns="http://www.w3.org/2000/svg"><path d="M65.75 47.27a3.33 3.33 0 0 1 0-4.74 3.33 3.33 0 0 1 4.74 0 3.33 3.33 0 0 1 0 4.74 3.33 3.33 0 0 1-4.74 0Zm-11.2 11.25a2.56 2.56 0 0 1 0-3.55 2.56 2.56 0 0 1 3.55 0c.95.96.95 2.55 0 3.55-1 .96-2.6.96-3.56 0Zm17.71-5.92a2.56 2.56 0 0 1 0-3.55 2.56 2.56 0 0 1 3.56 0c.95.96.95 2.55 0 3.55-1 1-2.6 1-3.56 0Zm-5.92 5.92a2.56 2.56 0 0 1 0-3.55 2.56 2.56 0 0 1 3.55 0c.96.96.96 2.55 0 3.55-1 .96-2.55.96-3.55 0Zm12.44-.59a1.7 1.7 0 0 1 0-2.37 1.7 1.7 0 0 1 2.37 0 1.7 1.7 0 0 1 0 2.37 1.7 1.7 0 0 1-2.37 0Zm-5.92 5.92a1.7 1.7 0 0 1 0-2.36 1.7 1.7 0 0 1 2.36 0 1.7 1.7 0 0 1 0 2.36 1.7 1.7 0 0 1-2.36 0ZM59.83 53.2a3.33 3.33 0 0 1 0-4.73 3.33 3.33 0 0 1 4.74 0 3.33 3.33 0 0 1 0 4.73 3.33 3.33 0 0 1-4.74 0Zm0-11.8a3.33 3.33 0 0 1 0-4.73 3.33 3.33 0 0 1 4.74 0 3.33 3.33 0 0 1 0 4.74 3.41 3.41 0 0 1-4.74 0Zm-5.88 5.88a3.33 3.33 0 0 1 0-4.74 3.33 3.33 0 0 1 4.74 0 3.33 3.33 0 0 1 0 4.74 3.33 3.33 0 0 1-4.74 0Zm-11.89 0a3.33 3.33 0 0 1 0-4.74 3.33 3.33 0 0 1 4.74 0 3.33 3.33 0 0 1 0 4.74 3.33 3.33 0 0 1-4.74 0ZM30.81 58.52a2.56 2.56 0 0 1 0-3.55 2.56 2.56 0 0 1 3.55 0c.96.96.96 2.55 0 3.55-.95.96-2.55.96-3.55 0Zm17.77-5.92a2.56 2.56 0 0 1 0-3.55 2.56 2.56 0 0 1 3.55 0c.96.96.96 2.55 0 3.55-1 1-2.6 1-3.55 0Zm-5.93 5.92a2.56 2.56 0 0 1 0-3.55 2.56 2.56 0 0 1 3.56 0c.95.96.95 2.55 0 3.55-1 .96-2.6.96-3.56 0Zm-23.05-.59a1.7 1.7 0 0 1 0-2.37 1.7 1.7 0 0 1 2.37 0 1.7 1.7 0 0 1 0 2.37 1.7 1.7 0 0 1-2.37 0Zm5.93 5.92a1.7 1.7 0 0 1 0-2.36 1.7 1.7 0 0 1 2.36 0 1.7 1.7 0 0 1 0 2.36 1.7 1.7 0 0 1-2.36 0Zm23.64 0a1.7 1.7 0 0 1 0-2.36 1.7 1.7 0 0 1 2.37 0 1.7 1.7 0 0 1 0 2.36 1.7 1.7 0 0 1-2.37 0ZM24.93 52.6a2.56 2.56 0 0 1 0-3.55 2.56 2.56 0 0 1 3.56 0c.95.96.95 2.55 0 3.55-1 1-2.6 1-3.56 0Zm11.2.6a3.33 3.33 0 0 1 0-4.74 3.33 3.33 0 0 1 4.75 0 3.33 3.33 0 0 1 0 4.73 3.33 3.33 0 0 1-4.74 0Zm0-11.8a3.33 3.33 0 0 1 0-4.74 3.33 3.33 0 0 1 4.75 0 3.33 3.33 0 0 1 0 4.74 3.41 3.41 0 0 1-4.74 0Zm-5.91 5.87a3.33 3.33 0 0 1 0-4.74 3.33 3.33 0 0 1 4.73 0 3.33 3.33 0 0 1 0 4.74 3.33 3.33 0 0 1-4.73 0Z" fill="#fff"/></svg>
